build/img/facebook.svg

<svg width="24" height="24" viewBox="0 0 24 24" fill="none" xmlns="http://www.w3.org/2000/svg">
<path d="M12 0.47998C5.63758 0.47998 0.47998 5.63758 0.47998 12C0.47998 18.3624 5.63758 23.52 12 23.52C18.3624 23.52 23.52 18.3624 23.52 12C23.52 5.63758 18.3624 0.47998 12 0.47998ZM14.7288 8.44078H12.9972C12.792 8.44078 12.564 8.71078 12.564 9.06958V10.32H14.73L14.4024 12.1032H12.564V17.4564H10.5204V12.1032H8.66638V10.32H10.5204V9.27118C10.5204 7.76638 11.5644 6.54358 12.9972 6.54358H14.7288V8.44078Z" fill="#919698"/>
</svg>

<svg width="24" height="24" xmlns="http://www.w3.org/2000/svg">
    <path d="M12 .48C5.638.48.48 5.638.48 12c0 6.362 5.158 11.52 11.52 11.52 6.362 0 11.52-5.158 11.52-11.52C23.52 5.638 18.362.48 12 .48zm2.729 7.96h-1.732c-.205 0-.433.27-.433.63v1.25h2.166l-.328 1.783h-1.838v5.353H10.52v-5.353H8.666V10.32h1.854V9.271c0-1.505 1.044-2.727 2.477-2.727h1.732V8.44z"/>
</svg>
